!!!COM: Mozart
!!!OTL: Zwolf Variationen in Eb uber das franzosische Lied 'La belle Francoise'
!!!Variation: Theme a
**function	**harm	**kern	**kern
*	*	*clefF4	*clefG2
*	*	*k[b-e-a-]	*k[b-e-a-]
*M6/8	*M6/8	*M6/8	*M6/8
*E-:	*E-:	*E-:	*E-:
4.T	4.I	(8E-L	(4g 4b-
.	.	8G	.
.	.	8B-J)	8e-) 8g
=1	=1	=1	=1
4.T	4.V7b	(8DL	4.f 4.a-
.	.	8F	.
.	.	8B-J)	.
4.T	4.V7	(8BB-L	8dL 8f
.	.	8F	8e- 8g
.	.	8B-J)	8fJ 8a-
=2	=2	=2	=2
2.T	2.I	(8E-L	4e- 4g
.	.	8G	.
.	.	8B-J)	8e- 8g
.	.	(8E-L	(4g 4b-
.	.	8G	.
.	.	8B-J)	8e-) 8g
=3	=3	=3	=3
2.D	2.V7	(8BB-L	4.f 4.a-
.	.	8F	.
.	.	8B-J)	.
.	.	(8BB-L	8A-L 8f
.	.	8D	8B- 8g
.	.	8FJ)	8A-J 8f
=4	=4	=4	=4
4.T	4.I	(8E-L	4.G 4.e-
.	.	8G	.
.	.	8B-J)	.
*-	*-	*-	*-
!!!COM: Mozart
!!!OTL: Zwolf Variationen in Eb uber das franzosische Lied 'La belle Francoise'
!!!Variation: Theme b
**function	**harm	**kern	**kern
*	*	*clefF4	*clefG2
*	*	*k[b-e-a-]	*k[b-e-a-]
*M6/8	*M6/8	*M6/8	*M6/8
*E-:	*E-:	*E-:	*E-:
4.D	4.V	(8BB-L	4f 4d
.	.	8D	.
.	.	8FJ)	8f 8d
=5	=5	=5	=5
4.D	4.Ic	(8BB-L	4g 4e-
.	.	8E-	.
.	.	8GJ)	8g 8e-
*	*	*	*^
.	.	.	(q32bb-	.
4.D	4.V7/V	(8BB-L	8aL)	4e-
.	.	8C	8g	.
.	.	8FJ)	8aJ	8e-
=6	=6	=6	=6	=6
2.D	2.V	(8BB-L	(8b-L	8d
.	.	8F	8dd	8r
.	.	8DJ)	8ffJ)	8r
*	*	*	*v	*v
.	.	(8BB-L	4f 4d
.	.	8D	.
.	.	8FJ)	8f 8d
=7	=7	=7	=7
4.D	4.Ic	(8BB-L	4g 4e-
.	.	8E-	.
.	.	8GJ)	8g 8e-
*	*	*	*^
.	.	.	(q32bb-	.
4.D	4.V7/V	(8BB-L	8aL	4e-
.	.	8C	8g	.
.	.	8FJ)	8aJ	8e-
=8	=8	=8	=8	=8
4.D	4.V	4.BBB-; 4.BB-;	8b-;L	8d
.	.	.	8a;	8r
.	.	.	8a-;J	8r
*	*	*	*v	*v
*-	*-	*-	*-
!!!COM: Mozart
!!!OTL: Zwolf Variationen in Eb uber das franzosische Lied 'La belle Francoise'
!!!Variation: Theme c
**function	**harm	**kern	**kern
*	*	*clefF4	*clefG2
*	*	*k[b-e-a-]	*k[b-e-a-]
*M6/8	*M6/8	*M6/8	*M6/8
*E-:	*E-:	*E-:	*E-:
!	!exact repeat of Theme a	!	!
*	*	*	*
4.T	4.I	(8E-L	(4g 4b-
.	.	8G	.
.	.	8B-J)	8e-) 8g
=9	=9	=9	=9
4.T	4.V7b	(8DL	4.f 4.a-
.	.	8F	.
.	.	8B-J)	.
4.T	4.V7	(8BB-L	8dL 8f
.	.	8F	8e- 8g
.	.	8B-J)	8fJ 8a-
=10	=10	=10	=10
2.T	2.I	(8E-L	4e- 4g
.	.	8G	.
.	.	8B-J)	8e- 8g
.	.	(8E-L	(4g 4b-
.	.	8G	.
.	.	8B-J)	8e-) 8g
=11	=11	=11	=11
2.D	2.V7	(8BB-L	4.f 4.a-
.	.	8F	.
.	.	8B-J)	.
.	.	(8BB-L	8A-L 8f
.	.	8D	8B- 8g
.	.	8FJ)	8A-J 8f
=12	=12	=12	=12
4.T	4.I	(8E-L	4.G 4.e-
.	.	8G	.
.	.	8B-J)	.
*-	*-	*-	*-
!!!COM: Mozart
!!!OTL: Zwolf Variationen in Eb uber das franzosische Lied 'La belle Francoise'
!!!Variation: Variation 1a
**function	**harm	**kern	**kern
*	*	*clefF4	*clefG2
*	*	*k[b-e-a-]	*k[b-e-a-]
*	*	*M6/8	*M6/8
*E-:	*E-:	*E-:	*E-:
4.T	4.I	(8E-L	8r
.	.	8G	(8b-L
.	.	8B-J)	8gJ)
=13	=13	=13	=13
4.T	4.IVc	(8E-L	8r
.	.	8A-	(32b-LLK
.	.	.	16.a-JJ)
.	.	8cJ)	(32gLLK
.	.	.	16.a-JJ)
4.T	4.viiob	(8E-L	(32eLLK
.	.	.	16.fJJ)
.	.	8F	(32a-LLK
.	.	.	16.gJJ)
.	.	8dJ)	(32b-LLK
.	.	.	16.a-JJ)
=14	=14	=14	=14
4.T	4.I	(8E-L	8r
.	.	8G	(32aLLK
.	.	.	16.b-J)
.	.	8e-J)	(32ccLK
.	.	.	16.b-JJ)
4.T	4.V7/IV	(8E-L	8r
.	.	8G	(8b-L
.	.	8d-J)	8gJ)
=15	=15	=15	=15
4.P	4.iib	(8AA-L	8r
.	.	8C	(32b-LLK
.	.	.	16.a-JJ)
.	.	8FJ)	(32gLLK
.	.	.	16.a-JJ)
4.D	4.V	(8BB-L	(32eLLK
.	.	.	16.fJJ)
.	.	8Dn	(32gLLK
.	.	.	16.fJJ)
.	.	8FJ)	(32a-LLK
.	.	.	16.fJJ)
=16	=16	=16	=16
4.T	4.I	(8E-L	8r
.	.	8G	(8dL
.	.	8B-J)	8e-J)
*-	*-	*-	*-
!!!COM: Mozart
!!!OTL: Zwolf Variationen in Eb uber das franzosische Lied 'La belle Francoise'
!!!Variation: Variation 1b
**function	**harm	**kern	**kern
*	*	*clefF4	*clefG2
*	*	*k[b-e-a-]	*k[b-e-a-]
*M6/8	*M6/8	*M6/8	*M6/8
*E-:	*E-:	*E-:	*E-:
4.D	4.V	(8BB-L	8r
.	.	8D	(8eL
.	.	8FJ)	8fJ)
=17	=17	=17	=17
4.D	4.Ic	(8BB-L	8r
.	.	8E-	(8f#L
.	.	8GJ)	8gJ)
4.D	4.viiob/V	(8BB-L	8r
.	.	8C	(8ee-L
.	.	8E-J)	8a-J)
=18	=18	=18	=18
4.D	4.V	(8BB-L	(32ggLLK
.	.	.	16.ffJ)
.	.	8D	(32ee-LK
.	.	.	16.ddJ)
.	.	8FJ)	(32ccLK
.	.	.	16.b-JJ)
4.D	4.V7	(8BB-L	8r
.	.	8D	(8eL
.	.	8A-J)	8fJ)
=19	=19	=19	=19
4.D	4.Ic	(8BB-L	8r
.	.	8E-	(32f#LLK
.	.	.	16.gJJ)
.	.	8GJ)	(32ff#LLK
.	.	.	16.ggJJ)
4.D	4.viiob/V	(8BB-L	(32ffLLK
.	.	.	16.ee-JJ)
.	.	8C	(32ddLLK
.	.	.	16.ccJJ)
.	.	8E-J)	(32b-LLK
.	.	.	16.aJJ)
=20	=20	=20	=20
4.D	4.V	4BB- 4D	8r
.	.	.	16ccLL
.	.	.	16b-
.	.	8r	16a
.	.	.	16b-JJ
*-	*-	*-	*-
!!!COM: Mozart
!!!OTL: Zwolf Variationen in Eb uber das franzosische Lied 'La belle Francoise'
!!!Variation: Variation 1c
**function	**harm	**kern	**kern
*	*	*clefF4	*clefG2
*	*	*k[b-e-a-]	*k[b-e-a-]
*M6/8	*M6/8	*M6/8	*M6/8
*E-:	*E-:	*E-:	*E-:
4.T	4.I	(8E-L	8r
.	.	8G	(8b-L
.	.	8B-J)	8gJ)
=21	=21	=21	=21
4.T	4.IVc	(8E-L	8r
.	.	8A-	(32b-LLK
.	.	.	16.a-JJ)
.	.	8cJ)	(32gLLK
.	.	.	16.a-JJ)
4.T	4.viiob	(8E-L	(32eLLK
.	.	.	16.fJJ)
.	.	8F	(32a-LLK
.	.	.	16.gJJ)
.	.	8dJ)	(32b-LLK
.	.	.	16.a-JJ)
=22	=22	=22	=22
4.T	4.I	(8E-L	8r
.	.	8G	(32ccLLK
.	.	.	16.b-J)
.	.	8e-J)	(32aLK
.	.	.	16.b-JJ)
4.T	4.vi	(8CL	8r
.	.	8E-	(8ee-L
.	.	8GJ)	8gJ)
=23	=23	=23	=23
4.P	4.iib	(8AA-L	8r
.	.	8C	(32gLLK
.	.	.	16.fJJ)
.	.	8FJ)	(32a-LLK
.	.	.	16.gJJ)
4.D	4.V7	(8BB-L	(32b-LLK
.	.	.	16.a-JJ)
.	.	8D	(32ccLLK
.	.	.	16.b-JJ)
.	.	8FJ)	(32a-LLK
.	.	.	16.fJJ)
=24	=24	=24	=24
4.T	4.I	8E-'L	(32dLLK
.	.	.	16.e-JJ)
.	.	8BB-'	8r
.	.	8EE-'J	8r
*-	*-	*-	*-
!!!COM: Mozart
!!!OTL: Zwolf Variationen in Eb uber das franzosische Lied 'La belle Francoise'
!!!Variation: Variation 2a
**function	**harm	**kern	**kern
*	*	*clefF4	*clefG2
*	*	*k[b-e-a-]	*k[b-e-a-]
*M6/8	*M6/8	*M6/8	*M6/8
*E-:	*E-:	*E-:	*E-:
4.T	4.I	16r	(4g 4b-
.	.	(16EE-LL	.
.	.	16DD	.
.	.	16EE-	.
.	.	16DD	8e-) 8g
.	.	16EE-JJ)	.
=25	=25	=25	=25
2.T	2.viio	16r	4.f 4.a-
.	.	(16E-LL	.
.	.	16D	.
.	.	16E-	.
.	.	16D	.
.	.	16E-JJ)	.
*	*	*clefG2	*
.	.	16r	8dL 8f
.	.	(16ee-LL	.
.	.	16dd	8e- 8g
.	.	16ee-	.
.	.	16dd	8fJ 8a-
.	.	16ee-JJ)	.
=26	=26	=26	=26
2.T	2.I	16r	4e- 4g
.	.	(16eee-LL	.
.	.	16ddd	.
.	.	16eee-	.
.	.	16ddd	8e- 8g
.	.	16eee-JJ)	.
*	*	*clefF4	*
.	.	16r	(4g 4b-
.	.	(16E-LL	.
.	.	16D	.
.	.	16E-	.
.	.	16D	8e-) 8g
.	.	16E-JJ)	.
=27	=27	=27	=27
4.P	4.iib	16r	4.f 4.a-
.	.	(16AA-LL	.
.	.	16GG	.
.	.	16AA-	.
.	.	16GG	.
.	.	16AA-JJ)	.
4.D	4.V7	16r	(8dL 8f
.	.	(16BB-LL	.
.	.	16AA	8f) 8a-
.	.	16BB-	.
.	.	16AA	8A-J 8f
.	.	16BB-JJ)	.
=28	=28	=28	=28
4.T	4.I	16r	4.G 4.e-
.	.	(16EE-LL	.
.	.	16DD	.
.	.	16EE-	.
.	.	16DD	.
.	.	16EE-JJ)	.
*-	*-	*-	*-
!!!COM: Mozart
!!!OTL: Zwolf Variationen in Eb uber das franzosische Lied 'La belle Francoise'
!!!Variation: Variation 2b
**function	**harm	**kern	**kern
*	*	*clefF4	*clefG2
*	*	*k[b-e-a-]	*k[b-e-a-]
*M6/8	*M6/8	*M6/8	*M6/8
*E-:	*E-:	*E-:	*E-:
4.D	4.V	4.BB- 4.D 4.F	16r
.	.	.	(16fLL
.	.	.	16e
.	.	.	16f
.	.	.	16d
.	.	.	16B-JJ)
=29	=29	=29	=29
4.D	4.Ic	4.BB- 4.E- 4.G	16r
.	.	.	(16gLL
.	.	.	16f#
.	.	.	16g
.	.	.	16e-
.	.	.	16B-JJ)
4.D	4.V7/V	(4.BB- 4.C 4.E- 4.F 4.A	16r
.	.	.	(16ee-LL
.	.	.	16dd
.	.	.	16ee-
.	.	.	16cc
.	.	.	16aJJ)
=30	=30	=30	=30
4.D	4.V	4.BB-) 4.D 4.F 4.B-	16r
.	.	.	(16ffLL
.	.	.	16ee
.	.	.	16ff
.	.	.	16dd
.	.	.	16b-JJ)
4.D	4.V7	4.BB- 4.D 4.A-	16r
.	.	.	(16fLL
.	.	.	16e
.	.	.	16f
.	.	.	16d
.	.	.	16B-JJ)
=31	=31	=31	=31
4.D	4.Ic	4.BB- 4.E- 4.G	16r
.	.	.	(16gLL
.	.	.	16f#
.	.	.	16g
.	.	.	16e-
.	.	.	16B-JJ)
4.D	4.V7/V	(4.BB- 4.C 4.E- 4.F 4.A	16r
.	.	.	(16ee-LL
.	.	.	16dd
.	.	.	16ee-
.	.	.	16cc
.	.	.	16aJJ)
=32	=32	=32	=32
4.D	4.V	8BB-) 8D 8F 8B-	(16b-LL
.	.	.	16a
.	.	8r	16b-
.	.	.	16a
.	.	8r	16b-
.	.	.	16aJJ)
*-	*-	*-	*-
!!!COM: Mozart
!!!OTL: Zwolf Variationen in Eb uber das franzosische Lied 'La belle Francoise'
!!!Variation: Variation 2c
**function	**harm	**kern	**kern
*	*	*clefF4	*clefG2
*	*	*k[b-e-a-]	*k[b-e-a-]
*M6/8	*M6/8	*M6/8	*M6/8
*E-:	*E-:	*E-:	*E-:
!	!exact repeat of 2a	!	!
*	*	*	*
4.T	4.I	16r	(4g 4b-
.	.	(16EE-LL	.
.	.	16DD	.
.	.	16EE-	.
.	.	16DD	8e-) 8g
.	.	16EE-JJ)	.
=33	=33	=33	=33
2.T	2.viio	16r	4.f 4.a-
.	.	(16E-LL	.
.	.	16D	.
.	.	16E-	.
.	.	16D	.
.	.	16E-JJ)	.
*	*	*clefG2	*
.	.	16r	8dL 8f
.	.	(16ee-LL	.
.	.	16dd	8e- 8g
.	.	16ee-	.
.	.	16dd	8fJ 8a-
.	.	16ee-JJ)	.
=34	=34	=34	=34
2.T	2.I	16r	4e- 4g
.	.	(16eee-LL	.
.	.	16ddd	.
.	.	16eee-	.
.	.	16ddd	8e- 8g
.	.	16eee-JJ)	.
*	*	*clefF4	*
.	.	16r	(4g 4b-
.	.	(16E-LL	.
.	.	16D	.
.	.	16E-	.
.	.	16D	8e-) 8g
.	.	16E-JJ)	.
=35	=35	=35	=35
4.P	4.iib	16r	4.f 4.a-
.	.	(16AA-LL	.
.	.	16GG	.
.	.	16AA-	.
.	.	16GG	.
.	.	16AA-JJ)	.
4.D	4.V7	16r	(8dL 8f
.	.	(16BB-LL	.
.	.	16AA	8f) 8a-
.	.	16BB-	.
.	.	16AA	8A-J 8f
.	.	16BB-JJ)	.
=36	=36	=36	=36
4.T	4.I	16r	4.G 4.e-
.	.	(16EE-LL	.
.	.	16DD	.
.	.	16EE-	.
.	.	16DD	.
.	.	16EE-JJ)	.
*-	*-	*-	*-
!!!COM: Mozart
!!!OTL: Zwolf Variationen in Eb uber das franzosische Lied 'La belle Francoise'
!!!Variation: Variation 3a
**function	**harm	**kern	**kern
*	*	*clefF4	*clefG2
*	*	*k[b-e-a-]	*k[b-e-a-]
*M6/8	*M6/8	*M6/8	*M6/8
*E-:	*E-:	*E-:	*E-:
4.T	4.I	(24E-LL	4bb-
.	.	24G	.
.	.	24B-J)	.
.	.	(24E-L	.
.	.	24G	.
.	.	24B-J)	.
.	.	(24E-L	8gg
.	.	24G	.
.	.	24B-JJ)	.
=37	=37	=37	=37
4.T	4.V7c	(24FLL	24aa-LL
.	.	24A-	24bb-
.	.	24B-J)	24aa-J
.	.	(24FL	24ggL
.	.	24A-	24ff
.	.	24B-J)	24ee-J
.	.	(24FL	8ddJ
.	.	24A-	.
.	.	24B-JJ)	.
4.T	4.V7	(24BB-LL	(24ffLL
.	.	24D	24gg
.	.	24FJ)	24ffJ
.	.	(24BB-L	24ee-L
.	.	24D	24dd
.	.	24FJ)	24ccJ
.	.	(24BB-L	24b-L
.	.	24D	24cc
.	.	24FJJ)	24a-JJ)
=38	=38	=38	=38
2.T	2.I	(24E-LL	8g'L
.	.	24G	.
.	.	24B-J)	.
.	.	(24E-L	8b-'
.	.	24G	.
.	.	24B-J)	.
.	.	(24E-L	8ee-'J
.	.	24G	.
.	.	24B-JJ)	.
.	.	.	(q32b-
.	.	.	q32ee-
.	.	.	q32gg
.	.	(24E-LL	4bb-)
.	.	24G	.
.	.	24B-J)	.
.	.	(24E-L	.
.	.	24G	.
.	.	24B-J)	.
.	.	(24E-L	8gg
.	.	24G	.
.	.	24B-JJ)	.
=39	=39	=39	=39
4.D	4.V7c	(24FLL	24aa-LL
.	.	24A-	24bb-
.	.	24B-J)	24aa-J
.	.	(24FL	24ggL
.	.	24A-	24ff
.	.	24B-J)	24ee-J
.	.	(24FL	8ddJ
.	.	24A-	.
.	.	24B-JJ)	.
4.D	4.V7	(24BB-LL	(24ffLL
.	.	24D	24gg
.	.	24A-J)	24ffJ
.	.	(24BB-L	24ee-L
.	.	24D	24dd
.	.	24A-J)	24ccJ
.	.	(24BB-L	24b-L
.	.	24D	24a-
.	.	24A-JJ)	24fJJ)
=40	=40	=40	=40
4.T	4.I	8E-L 8G	8e-L
.	.	8BB-	8B-
.	.	8EE-J	8GJ 8B- 8e-
*-	*-	*-	*-
!!!COM: Mozart
!!!OTL: Zwolf Variationen in Eb uber das franzosische Lied 'La belle Francoise'
!!!Variation: Variation 3b
**function	**harm	**kern	**kern
*	*	*clefF4	*clefG2
*	*	*k[b-e-a-]	*k[b-e-a-]
*M6/8	*M6/8	*M6/8	*M6/8
*E-:	*E-:	*E-:	*E-:
.	.	.	(q32B-
.	.	.	q32d
4.D	4.V	(24BB-LL	4f)
.	.	24D	.
.	.	24FJ)	.
.	.	(24BB-L	.
.	.	24D	.
.	.	24FJ)	.
.	.	(24BB-L	(32e-LLL
.	.	.	32d
.	.	24D	.
.	.	.	32c
.	.	24FJJ)	.
.	.	.	32B-JJJ)
=41	=41	=41	=41
4.D	4.Ic	(24BB-LL	16g'LL
.	.	24E-	.
.	.	.	16g'J
.	.	24GJ)	.
.	.	(24BB-L	8g'
.	.	24E-	.
.	.	24GJ)	.
.	.	(24BB-L	(32fLL
.	.	.	32e-
.	.	24E-	.
.	.	.	32d
.	.	24GJJ)	.
.	.	.	32cJJJ)
4.D	4.viiob/V	(24BB-LL	16ee-'LL
.	.	24C	.
.	.	.	16ee-'J
.	.	24E-J)	.
.	.	(24BB-L	8ee-'
.	.	24C	.
.	.	24E-J)	.
.	.	(24BB-L	(32ddLL
.	.	.	32cc
.	.	24C	.
.	.	.	32b-
.	.	24E-JJ)	.
.	.	.	32aJJJ)
=42	=42	=42	=42
2.D	2.V	(24BB-LL	16ff'LL
.	.	24D	.
.	.	.	16ff'J
.	.	24FJ)	.
.	.	(24BB-L	8ff'
.	.	24D	.
.	.	24FJ)	.
.	.	(24BB-L	(32ee-LL
.	.	.	32dd
.	.	24D	.
.	.	.	32cc
.	.	24FJJ)	.
.	.	.	32b-JJJ)
.	.	(24BB-LL	4ff
.	.	24D	.
.	.	24FJ)	.
.	.	(24BB-L	.
.	.	24D	.
.	.	24FJ)	.
.	.	(24BB-L	(32ee-LLL
.	.	.	32dd
.	.	24D	.
.	.	.	32cc
.	.	24FJJ)	.
.	.	.	32b-JJJ)
=43	=43	=43	=43
4.D	4.Ic	(24BB-LL	16gg'LL
.	.	24E-	.
.	.	.	16gg'J
.	.	24GJ)	.
.	.	(24BB-L	8gg'
.	.	24E-	.
.	.	24GJ)	.
.	.	(24BB-L	(32ffLL
.	.	.	32ee-
.	.	24E-	.
.	.	.	32dd
.	.	24GJJ)	.
.	.	.	32ccJJJ)
4.D	4.viiob/V	(24BB-LL	16eee-'LL
.	.	24C	.
.	.	.	16eee-'J
.	.	24E-J)	.
.	.	(24BB-L	8eee-'
.	.	24C	.
.	.	24E-J)	.
.	.	(24BB-L	(32dddLL
.	.	.	32ccc
.	.	24C	.
.	.	.	32bb-
.	.	24E-JJ)	.
.	.	.	32aaJJJ)
=44	=44	=44	=44
4.D	4.V	8BB- 8D	(24bb-LL
.	.	.	24ccc
.	.	.	24aaJ
.	.	8r	24bb-L
.	.	.	24ccc
.	.	.	24aaJ
.	.	8r	24bb-L
.	.	.	24ccc
.	.	.	24aaJJ)
*-	*-	*-	*-
!!!COM: Mozart
!!!OTL: Zwolf Variationen in Eb uber das franzosische Lied 'La belle Francoise'
!!!Variation: Variation 3c
**function	**harm	**kern	**kern
*	*	*clefF4	*clefG2
*	*	*k[b-e-a-]	*k[b-e-a-]
*M6/8	*M6/8	*M6/8	*M6/8
*E-:	*E-:	*E-:	*E-:
!	!exact repeat of 3a	!	!
*	*	*	*
4.T	4.I	(24E-LL	4bb-
.	.	24G	.
.	.	24B-J)	.
.	.	(24E-L	.
.	.	24G	.
.	.	24B-J)	.
.	.	(24E-L	8gg
.	.	24G	.
.	.	24B-JJ)	.
=45	=45	=45	=45
4.T	4.V7c	(24FLL	24aa-LL
.	.	24A-	24bb-
.	.	24B-J)	24aa-J
.	.	(24FL	24ggL
.	.	24A-	24ff
.	.	24B-J)	24ee-J
.	.	(24FL	8ddJ
.	.	24A-	.
.	.	24B-JJ)	.
4.T	4.V7	(24BB-LL	(24ffLL
.	.	24D	24gg
.	.	24FJ)	24ffJ
.	.	(24BB-L	24ee-L
.	.	24D	24dd
.	.	24FJ)	24ccJ
.	.	(24BB-L	24b-L
.	.	24D	24cc
.	.	24FJJ)	24a-JJ)
=46	=46	=46	=46
2.T	2.I	(24E-LL	8g'L
.	.	24G	.
.	.	24B-J)	.
.	.	(24E-L	8b-'
.	.	24G	.
.	.	24B-J)	.
.	.	(24E-L	8ee-'J
.	.	24G	.
.	.	24B-JJ)	.
.	.	.	(q32b-
.	.	.	q32ee-
.	.	.	q32gg
.	.	(24E-LL	4bb-)
.	.	24G	.
.	.	24B-J)	.
.	.	(24E-L	.
.	.	24G	.
.	.	24B-J)	.
.	.	(24E-L	8gg
.	.	24G	.
.	.	24B-JJ)	.
=47	=47	=47	=47
4.D	4.V7c	(24FLL	24aa-LL
.	.	24A-	24bb-
.	.	24B-J)	24aa-J
.	.	(24FL	24ggL
.	.	24A-	24ff
.	.	24B-J)	24ee-J
.	.	(24FL	8ddJ
.	.	24A-	.
.	.	24B-JJ)	.
4.D	4.V7	(24BB-LL	(24ffLL
.	.	24D	24gg
.	.	24A-J)	24ffJ
.	.	(24BB-L	24ee-L
.	.	24D	24dd
.	.	24A-J)	24ccJ
.	.	(24BB-L	24b-L
.	.	24D	24a-
.	.	24A-JJ)	24fJJ)
=48	=48	=48	=48
4.T	4.I	8E-L 8G	8e-L
.	.	8BB-	8B-
.	.	8EE-J	8GJ 8B- 8e-
*-	*-	*-	*-
!!!COM: Mozart
!!!OTL: Zwolf Variationen in Eb uber das franzosische Lied 'La belle Francoise'
!!!Variation: Variation 4a
**function	**harm	**kern	**kern
*	*	*clefF4	*clefG2
*	*	*k[b-e-a-]	*k[b-e-a-]
*M6/8	*M6/8	*M6/8	*M6/8
*E-:	*E-:	*E-:	*E-:
4.T	4.I	4r	(8ee-'L
.	.	.	8ee-'
.	.	8r	8ee-'J)
=49	=49	=49	=49
4.T	4.IVc	4.E- 4.A- 4.c	(8.ee-L
.	.	.	48ddLL
.	.	.	48cc
.	.	.	48b-JJ
.	.	.	8a-J)
.	.	.	(q32b-
4.T	4.viiob	4.E- 4.F 4.d	8a-L)
.	.	.	8g'
.	.	.	8a-'J
=50	=50	=50	=50
4.T	4.I	4.E- 4.G 4.e-	(4cc
.	.	.	8b-)
4.T	4.V7/IV	4.E- 4.G 4.d-	(16ddnLL
.	.	.	16ee-
.	.	.	16dd
.	.	.	16ee-
.	.	.	16dd
.	.	.	16ee-JJ)
=51	=51	=51	=51
.	.	.	(q32ff
4.P	4.IVc	4.E- 4.A- 4.c	(8.ee-L)
.	.	.	48ddLL
.	.	.	48cc
.	.	.	48b-JJ
.	.	.	8a-J)
.	.	.	(q32b-
4.D	4.viiob	4.E- 4.F 4.d	8a-L)
.	.	.	8g'
.	.	.	8f'J
=52	=52	=52	=52
4.T	4.I	4.EE-	(4A- 4d 4f
.	.	.	8G) 8e-
*-	*-	*-	*-
!!!COM: Mozart
!!!OTL: Zwolf Variationen in Eb uber das franzosische Lied 'La belle Francoise'
!!!Variation: Variation 4b
**function	**harm	**kern	**kern
*	*	*clefF4	*clefG2
*	*	*k[b-e-a-]	*k[b-e-a-]
*M6/8	*M6/8	*M6/8	*M6/8
*E-:	*E-:	*E-:	*E-:
4.D	4.V7	8BBB-	(8dL 8f
.	.	8r	8e- 8g
.	.	8r	8fJ) 8a-
=53	=53	=53	=53
4.D	4.Ic	8r	(8dL 8f#
.	.	8B-L	8e-J) 8g
.	.	8BB-J	8r
4.D	4.viio/V	4r	(8aL 8cc
.	.	.	8b- 8dd
.	.	8r	8ccJ) 8ee-
=54	=54	=54	=54
.	.	.	(q32dd
4.D	4.V	4.BBB- 4.BB-	(8.ffL)
.	.	.	48ggLL
.	.	.	48ff
.	.	.	48ee-JJ
.	.	.	8ddJ)
4.D	4.V7	4.r	(8dL 8f
.	.	.	8e- 8g
.	.	.	8fJ) 8a-
=55	=55	=55	=55
4.D	4.I	4.EE- 4.E-	(8dL 8f#
.	.	.	8e-) 8g
.	.	.	[8ee-J) [8gg
4.D	4.V7/V	4.FF 4.F	(8ee-L] 8gg]
.	.	.	8dd 8ff
.	.	.	8e-J) 8a
=56	=56	=56	=56
4.D	4.V	4.BBB- 4.BB-;	4.d; 4.b-;
.	.	.	(q8b';
.	.	.	q8cc';
.	.	.	q8dd';)
*-	*-	*-	*-
!!!COM: Mozart
!!!OTL: Zwolf Variationen in Eb uber das franzosische Lied 'La belle Francoise'
!!!Variation: Variation 4c
**function	**harm	**kern	**kern
*	*	*clefF4	*clefG2
*	*	*k[b-e-a-]	*k[b-e-a-]
*M6/8	*M6/8	*M6/8	*M6/8
*E-:	*E-:	*E-:	*E-:
!	!exact repeat of 4a	!	!
*	*	*	*
4.T	4.I	4r	(8ee-'L
.	.	.	8ee-'
.	.	8r	8ee-'J)
=57	=57	=57	=57
4.T	4.IVc	4.E- 4.A- 4.c	(8.ee-L
.	.	.	48ddLL
.	.	.	48cc
.	.	.	48b-JJ
.	.	.	8a-J)
.	.	.	(q32b-
4.T	4.viiob	4.E- 4.F 4.d	8a-L)
.	.	.	8g'
.	.	.	8a-'J
=58	=58	=58	=58
4.T	4.I	4.E- 4.G 4.e-	(4cc
.	.	.	8b-)
4.T	4.V7/IV	4.E- 4.G 4.d-	(16ddnLL
.	.	.	16ee-
.	.	.	16dd
.	.	.	16ee-
.	.	.	16dd
.	.	.	16ee-JJ)
=59	=59	=59	=59
.	.	.	(q32ff
4.P	4.IVc	4.E- 4.A- 4.c	(8.ee-L)
.	.	.	48ddLL
.	.	.	48cc
.	.	.	48b-JJ
.	.	.	8a-J)
.	.	.	(q32b-
4.D	4.viiob	4.E- 4.F 4.d	8a-L)
.	.	.	8g'
.	.	.	8f'J
=60	=60	=60	=60
4.T	4.I	4.EE-	(4A- 4d 4f
.	.	.	8G) 8e-
*-	*-	*-	*-
!!!COM: Mozart
!!!OTL: Zwolf Variationen in Eb uber das franzosische Lied 'La belle Francoise'
!!!Variation: Variation 5a
**function	**harm	**kern	**kern
*	*	*clefF4	*clefG2
*	*	*k[b-e-a-]	*k[b-e-a-]
*M6/8	*M6/8	*M6/8	*M6/8
*E-:	*E-:	*E-:	*E-:
4.T	4.I	4.r	24b-LL
.	.	.	24g
.	.	.	24B-J
.	.	.	24b-L
.	.	.	24g
.	.	.	24B-J
.	.	.	24gL
.	.	.	24e-
.	.	.	24B-JJ
=61	=61	=61	=61
2.T	2.V7	4.BBB- 4.BB-	24a-LL
.	.	.	24f
.	.	.	24B-J
.	.	.	24a-L
.	.	.	24f
.	.	.	24B-J
.	.	.	24a-L
.	.	.	24f
.	.	.	24B-JJ
.	.	4.r	24fLL
.	.	.	24d
.	.	.	24B-J
.	.	.	24gL
.	.	.	24e-
.	.	.	24B-J
.	.	.	24a-L
.	.	.	24f
.	.	.	24B-JJ
=62	=62	=62	=62
2.T	2.I	4.EE- 4.E-	24b-LL
.	.	.	24g
.	.	.	24B-J
.	.	.	24b-L
.	.	.	24g
.	.	.	24B-J
.	.	.	24gL
.	.	.	24e-
.	.	.	24B-JJ
.	.	4.r	24b-LL
.	.	.	24g
.	.	.	24B-J
.	.	.	24b-L
.	.	.	24g
.	.	.	24B-J
.	.	.	24gL
.	.	.	24e-
.	.	.	24B-JJ
=63	=63	=63	=63
2.D	2.V7	4.BBB- 4.BB-	24a-LL
.	.	.	24f
.	.	.	24B-J
.	.	.	24a-L
.	.	.	24f
.	.	.	24B-J
.	.	.	24a-L
.	.	.	24f
.	.	.	24B-JJ
.	.	8r	24fLL
.	.	.	24d
.	.	.	24B-J
.	.	8r	24a-L
.	.	.	24f
.	.	.	24B-J
.	.	8BB-	24fL
.	.	.	24d
.	.	.	24B-JJ
=64	=64	=64	=64
4.T	4.I	8E-L	8e-
.	.	8BB-	8r
.	.	8EE-J	8r
*-	*-	*-	*-
!!!COM: Mozart
!!!OTL: Zwolf Variationen in Eb uber das franzosische Lied 'La belle Francoise'
!!!Variation: Variation 5b
**function	**harm	**kern	**kern
*	*	*clefF4	*clefG2
*	*	*k[b-e-a-]	*k[b-e-a-]
*M6/8	*M6/8	*M6/8	*M6/8
*E-:	*E-:	*E-:	*E-:
4.D	4.V	4.BB- 4.D 4.F	24fLL
.	.	.	24d
.	.	.	24B-J
.	.	.	24B-L
.	.	.	24A
.	.	.	24B-J
.	.	.	24fL
.	.	.	24d
.	.	.	24B-JJ
=65	=65	=65	=65
4.D	4.Ic	4.BB- 4.E- 4.G	24gLL
.	.	.	24e-
.	.	.	24B-J
.	.	.	24B-L
.	.	.	24A
.	.	.	24B-J
.	.	.	24gL
.	.	.	24e-
.	.	.	24B-JJ
4.D	4.viiob/V	4.BB- 4.C 4.E-	24ee-LL
.	.	.	24cc
.	.	.	24aJ
.	.	.	24aL
.	.	.	24g
.	.	.	24aJ
.	.	.	24ee-L
.	.	.	24cc
.	.	.	24aJJ
=66	=66	=66	=66
4.D	4.V	4.BB- 4.D 4.F	24ffLL
.	.	.	24dd
.	.	.	24b-J
.	.	.	24b-L
.	.	.	24a
.	.	.	24b-J
.	.	.	24ffL
.	.	.	24dd
.	.	.	24b-JJ
4.D	4.V7	4.BB- 4.D 4.A-	24ffLL
.	.	.	24dd
.	.	.	24b-J
.	.	.	24b-L
.	.	.	24a
.	.	.	24b-J
.	.	.	24ffL
.	.	.	24dd
.	.	.	24b-JJ
=67	=67	=67	=67
4.D	4.Ic	4.BB- 4.E- 4.G	24ggLL
.	.	.	24ee-
.	.	.	24b-J
.	.	.	24b-L
.	.	.	24a
.	.	.	24b-J
.	.	.	24ggL
.	.	.	24ee-
.	.	.	24b-JJ
4.D	4.V7/V	(4.BB- 4.C 4.E- 4.F 4.A	24eee-LL
.	.	.	24ccc
.	.	.	24aaJ
.	.	.	24ffL
.	.	.	24ee-
.	.	.	24ccJ
.	.	.	24anL
.	.	.	24f
.	.	.	24e-JJ
=68	=68	=68	=68
4.D	4.V	8BB-) 8D 8F 8B-	24dLL
.	.	.	24B-
.	.	.	24cJ
.	.	8r	24dL
.	.	.	24e-
.	.	.	24fJ
.	.	8r	24gL
.	.	.	24a-
.	.	.	24aJJ
*-	*-	*-	*-
!!!COM: Mozart
!!!OTL: Zwolf Variationen in Eb uber das franzosische Lied 'La belle Francoise'
!!!Variation: Variation 5c
**function	**harm	**kern	**kern
*	*	*clefF4	*clefG2
*	*	*k[b-e-a-]	*k[b-e-a-]
*M6/8	*M6/8	*M6/8	*M6/8
*E-:	*E-:	*E-:	*E-:
!	!exact repeat of 5a	!	!
*	*	*	*
4.T	4.I	4.r	24b-LL
.	.	.	24g
.	.	.	24B-J
.	.	.	24b-L
.	.	.	24g
.	.	.	24B-J
.	.	.	24gL
.	.	.	24e-
.	.	.	24B-JJ
=69	=69	=69	=69
2.T	2.V7	4.BBB- 4.BB-	24a-LL
.	.	.	24f
.	.	.	24B-J
.	.	.	24a-L
.	.	.	24f
.	.	.	24B-J
.	.	.	24a-L
.	.	.	24f
.	.	.	24B-JJ
.	.	4.r	24fLL
.	.	.	24d
.	.	.	24B-J
.	.	.	24gL
.	.	.	24e-
.	.	.	24B-J
.	.	.	24a-L
.	.	.	24f
.	.	.	24B-JJ
=70	=70	=70	=70
2.T	2.I	4.EE- 4.E-	24b-LL
.	.	.	24g
.	.	.	24B-J
.	.	.	24b-L
.	.	.	24g
.	.	.	24B-J
.	.	.	24gL
.	.	.	24e-
.	.	.	24B-JJ
.	.	4.r	24b-LL
.	.	.	24g
.	.	.	24B-J
.	.	.	24b-L
.	.	.	24g
.	.	.	24B-J
.	.	.	24gL
.	.	.	24e-
.	.	.	24B-JJ
=71	=71	=71	=71
2.D	2.V7	4.BBB- 4.BB-	24a-LL
.	.	.	24f
.	.	.	24B-J
.	.	.	24a-L
.	.	.	24f
.	.	.	24B-J
.	.	.	24a-L
.	.	.	24f
.	.	.	24B-JJ
.	.	8r	24fLL
.	.	.	24d
.	.	.	24B-J
.	.	8r	24a-L
.	.	.	24f
.	.	.	24B-J
.	.	8BB-	24fL
.	.	.	24d
.	.	.	24B-JJ
=72	=72	=72	=72
4.T	4.I	8E-L	8e-
.	.	8BB-	8r
.	.	8EE-J	8r
*-	*-	*-	*-
!!!COM: Mozart
!!!OTL: Zwolf Variationen in Eb uber das franzosische Lied 'La belle Francoise'
!!!Variation: Variation 6a
**function	**harm	**kern	**kern
*	*	*clefF4	*clefG2
*	*	*k[b-e-a-]	*k[b-e-a-]
*M6/8	*M6/8	*M6/8	*M6/8
*E-:	*E-:	*E-:	*E-:
.	.	.	(q32a
4.D	4.V	4.r	8b-'L)
.	.	.	8b-'
.	.	.	8b-'J
=73	=73	=73	=73
2.D	2.V7	16BB-LL	16a-LL
.	.	16F	16fJ
.	.	16A-	8.d
.	.	16F	.
.	.	16A-	.
.	.	16FJJ	16fJk
.	.	16BB-LL	16a-LL
.	.	16F	16f
.	.	16A-	16d
.	.	16F	16f
.	.	16BB-	16a-
.	.	16FJJ	16fJJ
=74	=74	=74	=74
2.D	2.I	16E-LL	16b-LL
.	.	16G	16gJ
.	.	16B-	8.e-
.	.	16G	.
.	.	16B-	.
.	.	16GJJ	16gJk
.	.	16E-LL	16b-LL
.	.	16G	16g
.	.	16B-	16e-
.	.	16G	16g
.	.	16E-	16b-
.	.	16GJJ	16gJJ
=75	=75	=75	=75
2.D	2.V7	16BB-LL	16a-LL
.	.	16D	16fJ
.	.	16F	8.d
.	.	16D	.
.	.	16F	.
.	.	16DJJ	16fJk
.	.	16BB-LL	16a-LL
.	.	16D	16f
.	.	16F	16d
.	.	16D	16f
.	.	16BB-	16a-
.	.	16DJJ	16fJJ
=76	=76	=76	=76
4.T	4.I	8E-L	4.e-
.	.	8BB-	.
.	.	8EE-J	.
*-	*-	*-	*-
!!!COM: Mozart
!!!OTL: Zwolf Variationen in Eb uber das franzosische Lied 'La belle Francoise'
!!!Variation: Variation 6b
**function	**harm	**kern	**kern
*	*	*clefF4	*clefG2
*	*	*k[b-e-a-]	*k[b-e-a-]
*M6/8	*M6/8	*M6/8	*M6/8
*E-:	*E-:	*E-:	*E-:
.	.	.	(q32e
4.D	4.V	4.r	8f'L)
.	.	.	8f'
.	.	.	16dL
.	.	.	16B-JJ
=77	=77	=77	=77
.	.	.	(q32B-
4.D	4.Ic	16BB-LL	8g)
.	.	16E-	.
.	.	16G	4g
.	.	16E-	.
.	.	16G	.
.	.	16E-JJ	.
.	.	.	(q32b
4.D	4.V7/V	8BB- 8E- 8A	8cc'L)
.	.	8r	8cc'
.	.	8r	16aL
.	.	.	16fJJ
=78	=78	=78	=78
.	.	.	(q32f
2.D	2.V	16BB-LL	8ff)
.	.	16D	.
.	.	16F	4ff
.	.	16D	.
.	.	16F	.
.	.	16DJJ	.
.	.	.	(q32ee
.	.	8BB- 8D 8F	8ff'L)
.	.	8r	8ff'
.	.	8r	16ddL
.	.	.	16b-JJ
=79	=79	=79	=79
.	.	.	(q32b-
4.D	4.Ic	16BB-LL	8gg'L)
.	.	16E-	.
.	.	16G	8gg'
.	.	16E-	.
.	.	16G	16ee-L
.	.	16E-JJ	16ccJJ
.	.	.	(q32cc
4.D	4.V7/V	16BB-LL	8ccc'L)
.	.	16C	.
.	.	16E-	8ccc'
.	.	16C	.
.	.	16E-	16aaL
.	.	16CJJ	16ffJJ
=80	=80	=80	=80
.	.	.	(q32aa
4.D	4.V	8BB- 8D	8bb-'L)
.	.	8r	8bb-'
.	.	8r	8bb-'J
*-	*-	*-	*-
!!!COM: Mozart
!!!OTL: Zwolf Variationen in Eb uber das franzosische Lied 'La belle Francoise'
!!!Variation: Variation 6c
**function	**harm	**kern	**kern
*	*	*clefF4	*clefG2
*	*	*k[b-e-a-]	*k[b-e-a-]
*M6/8	*M6/8	*M6/8	*M6/8
*E-:	*E-:	*E-:	*E-:
!	!exact repeat of 6a	!	!
*	*	*	*
.	.	.	(q32a
4.D	4.V	4.r	8b-'L)
.	.	.	8b-'
.	.	.	8b-'J
=81	=81	=81	=81
2.D	2.V7	16BB-LL	16a-LL
.	.	16F	16fJ
.	.	16A-	8.d
.	.	16F	.
.	.	16A-	.
.	.	16FJJ	16fJk
.	.	16BB-LL	16a-LL
.	.	16F	16f
.	.	16A-	16d
.	.	16F	16f
.	.	16BB-	16a-
.	.	16FJJ	16fJJ
=82	=82	=82	=82
2.D	2.I	16E-LL	16b-LL
.	.	16G	16gJ
.	.	16B-	8.e-
.	.	16G	.
.	.	16B-	.
.	.	16GJJ	16gJk
.	.	16E-LL	16b-LL
.	.	16G	16g
.	.	16B-	16e-
.	.	16G	16g
.	.	16E-	16b-
.	.	16GJJ	16gJJ
=83	=83	=83	=83
2.D	2.V7	16BB-LL	16a-LL
.	.	16D	16fJ
.	.	16F	8.d
.	.	16D	.
.	.	16F	.
.	.	16DJJ	16fJk
.	.	16BB-LL	16a-LL
.	.	16D	16f
.	.	16F	16d
.	.	16D	16f
.	.	16BB-	16a-
.	.	16DJJ	16fJJ
=84	=84	=84	=84
4.T	4.I	8E-L	4.e-
.	.	8BB-	.
.	.	8EE-J	.
*-	*-	*-	*-
!!!COM: Mozart
!!!OTL: Zwolf Variationen in Eb uber das franzosische Lied 'La belle Francoise'
!!!Variation: Variation 7a
**function	**harm	**kern	**kern
*	*	*clefF4	*clefG2
*	*	*k[b-e-a-]	*k[b-e-a-]
*M6/8	*M6/8	*M6/8	*M6/8
*E-:	*E-:	*E-:	*E-:
.	.	(q32EE-	(q32e-
4.T	4.I	8E-'L)	8ee-'L)
.	.	(q32GG	(q32g
.	.	8G')	8gg')
.	.	(q32BB-	(q32b-
.	.	8B-'J)	8bb-'J)
=85	=85	=85	=85
2.T	2.V7	4.r	16aa-'LL
.	.	.	16gg'
.	.	.	16ff'
.	.	.	16ee-'
.	.	.	16dd'
.	.	.	16cc'JJ
*	*	*clefG2	*
*	*	*^	*
.	.	8dL 8f	4.B-	8b-'L
.	.	8e- 8g	.	8b-'
.	.	8fJ 8a-	.	8b-'J
=86	=86	=86	=86	=86
2.T	2.I	4g	4e-	(8.b-L
.	.	.	.	48ccLL
.	.	.	.	48b-
.	.	.	.	48a-JJ
*	*	*v	*v	*
.	.	8r	8gJ)
*	*	*clefF4	*
.	.	(q32EE-	(q32e-
.	.	8E-'L)	8ee-'L)
.	.	(q32GG	(q32g
.	.	8G')	8gg')
.	.	(q32BB-	(q32b-
.	.	8B-'J)	8bb-'J)
=87	=87	=87	=87
2.D	2.V7	4r	16aa-'LL
.	.	.	16gg'
.	.	.	16ff'
.	.	.	16ee-'
.	.	8r	16dd'
.	.	.	16cc'JJ
*	*	*clefG2	*
.	.	4.B- 4.f 4.a-	8b-'L
.	.	.	16b'L
.	.	.	16cc'
.	.	.	16dd-'
.	.	.	16dd'JJ
=88	=88	=88	=88
4.T	4.I	8e-L 8g	8ee-
*	*	*clefF4	*
.	.	8B-'	8r
.	.	8E-'J	8r
*-	*-	*-	*-
!!!COM: Mozart
!!!OTL: Zwolf Variationen in Eb uber das franzosische Lied 'La belle Francoise'
!!!Variation: Variation 7b
**function	**harm	**kern	**kern
*	*	*clefF4	*clefG2
*	*	*k[b-e-a-]	*k[b-e-a-]
*M6/8	*M6/8	*M6/8	*M6/8
*E-:	*E-:	*E-:	*E-:
*	*	*	*^
4.D	4.V	8B-'L	[4.ff	4r
.	.	8d'	.	.
.	.	8f'J	.	8r
=89	=89	=89	=89	=89
4.D	4.Ic	16e-'LL	8ffL]	8.gL
.	.	16d'	.	.
.	.	16c'	8ee-	.
.	.	16B-'	.	16ddL
.	.	16A'	[8ggJ	16cc
.	.	16G'JJ	.	16b-JJ
4.D	4.V7/V	8F'L	8ggL]	8aL
.	.	8An'	8ff	8cc
.	.	8c'J	[8ee-J	[8fJ
=90	=90	=90	=90	=90
2.D	2.V	16B-'LL	8ee-L]	8fL]
.	.	16G'	.	.
.	.	16F'	16ddL	16b-L
.	.	16E-'	16cc	16a
.	.	16D'	16dd	16b-
.	.	16C'JJ	16ee-JJ	16ccJJ
.	.	8BBB-'L 8BB-'	8ff	8dd
.	.	.	(q32ff	.
.	.	.	q32bb-	.
.	.	.	q32ddd	.
.	.	8DD' 8D'	[4fff)	8r
.	.	8FF'J 8F'	.	8r
=91	=91	=91	=91	=91
4.D	4.Ic	16EE-'LL 16E-'	8fffL]	16gg'LL
.	.	16DD' 16D'	.	16ff'
*	*	*	*v	*v
.	.	16CC' 16C'	16eee-'L 16ee-'
.	.	16BBB-' 16BB-'	16ddd' 16dd'
.	.	16AAA' 16AA'	16ccc' 16cc'
.	.	16GGG'JJ 16GG'	16bb-'JJ 16b-'JJ
4.D	4.V7/V	4.FFF 4.FF	16aa'LL 16a'LL
.	.	.	16gg' 16g'
.	.	.	16ff' 16f'
.	.	.	16ee-' 16e-'
.	.	.	16dd' 16d'
.	.	.	16cc'JJ 16c'JJ
=92	=92	=92	=92
4.D	4.V	8BB-'L	8b- 8B-
.	.	16BB'L	8r 8r
.	.	16C'	.
.	.	16D-'	8r 8r
.	.	16D'JJ	.
*-	*-	*-	*-
!!!COM: Mozart
!!!OTL: Zwolf Variationen in Eb uber das franzosische Lied 'La belle Francoise'
!!!Variation: Variation 7c
**function	**harm	**kern	**kern
*	*	*clefF4	*clefG2
*	*	*k[b-e-a-]	*k[b-e-a-]
*M6/8	*M6/8	*M6/8	*M6/8
*E-:	*E-:	*E-:	*E-:
!	!exact repeat of 7a	!	!
*	*	*	*
.	.	(q32EE-	(q32e-
4.T	4.I	8E-'L)	8ee-'L)
.	.	(q32GG	(q32g
.	.	8G')	8gg')
.	.	(q32BB-	(q32b-
.	.	8B-'J)	8bb-'J)
=93	=93	=93	=93
2.T	2.V7	4.r	16aa-'LL
.	.	.	16gg'
.	.	.	16ff'
.	.	.	16ee-'
.	.	.	16dd'
.	.	.	16cc'JJ
*	*	*clefG2a	*
*	*	*^	*
.	.	8dL 8f	4.B-	8b-'L
.	.	8e- 8g	.	8b-'
.	.	8fJ 8a-	.	8b-'J
=94	=94	=94	=94	=94
2.T	2.I	4g	4e-	(8.b-L
.	.	.	.	48ccLL
.	.	.	.	48b-
.	.	.	.	48a-JJ
*	*	*v	*v	*
.	.	8r	8gJ)
*	*	*clefF4	*
.	.	(q32EE-	(q32e-
.	.	8E-'L)	8ee-'L)
.	.	(q32GG	(q32g
.	.	8G')	8gg')
.	.	(q32BB-	(q32b-
.	.	8B-'J)	8bb-'J)
=95	=95	=95	=95
2.D	2.V7	4r	16aa-'LL
.	.	.	16gg'
.	.	.	16ff'
.	.	.	16ee-'
.	.	8r	16dd'
.	.	.	16cc'JJ
*	*	*clefG2	*
.	.	4.B- 4.f 4.a-	8b-'L
.	.	.	16b'L
.	.	.	16cc'
.	.	.	16dd-'
.	.	.	16dd'JJ
=96	=96	=96	=96
4.T	4.I	8e-L 8g	8ee-
*	*	*clefF4	*
.	.	8B-'	8r
.	.	8E-'J	8r
*-	*-	*-	*-
!!!COM: Mozart
!!!OTL: Zwolf Variationen in Eb uber das franzosische Lied 'La belle Francoise'
!!!Variation: Variation 8a
**function	**harm	**kern	**kern
*	*	*clefF4	*clefG2
*	*	*k[b-e-a-]	*k[b-e-a-]
*M6/8	*M6/8	*M6/8	*M6/8
*E-:	*E-:	*E-:	*E-:
4.T	4.I	8EE- 8E-	24r
.	.	.	24gLL
.	.	.	24b-JJ
*	*	*clefG2	*
.	.	(8ggL	24r
.	.	.	24e-LL
.	.	.	24b-JJ
.	.	8bb-J)	24r
.	.	.	24gLL
.	.	.	24b-JJ
=97	=97	=97	=97
2.T	2.V7	(8ggL	24r
.	.	.	24eLL
.	.	.	24b-JJ
.	.	8aa-	24r
.	.	.	24fLL
.	.	.	24b-JJ
.	.	8ggJ	24r
.	.	.	24e-LL
.	.	.	24b-JJ
.	.	8ffL	24r
.	.	.	24dLL
.	.	.	24b-JJ
.	.	8gg	24r
.	.	.	24e-LL
.	.	.	24b-JJ
.	.	8aa-J)	24r
.	.	.	24fLL
.	.	.	24b-JJ
=98	=98	=98	=98
2.T	2.I	(8ff#L	24r
.	.	.	24dLL
.	.	.	24b-JJ
.	.	8ggJ)	24r
.	.	.	24e-LL
.	.	.	24b-JJ
*	*	*clefF4	*
.	.	8BB- 8B-	24r
.	.	.	24gLL
.	.	.	24b-JJ
.	.	8EE- 8E-	24r
.	.	.	24gLL
.	.	.	24b-JJ
*	*	*clefG2	*
.	.	(8ggL	24r
.	.	.	24e-LL
.	.	.	24b-JJ
.	.	8bb-J	24r
.	.	.	24gLL
.	.	.	24b-JJ
=99	=99	=99	=99
2.D	2.V7	8ggL	24r
.	.	.	24eLL
.	.	.	24b-JJ
.	.	8aa-	24r
.	.	.	24fLL
.	.	.	24b-JJ
.	.	8ggJ	24r
.	.	.	24e-LL
.	.	.	24b-JJ
.	.	(8ffL	24r
.	.	.	24dLL
.	.	.	24b-JJ
.	.	8aa-)	24r
.	.	.	24fLL
.	.	.	24b-JJ
.	.	8dd'J	24r
.	.	.	24a-LL
.	.	.	24b-JJ
=100	=100	=100	=100
4.T	4.I	8ee-'	24r
.	.	.	24gLL
.	.	.	24b-JJ
*	*	*clefF4	*
.	.	8BB-L 8B-	24r
.	.	.	24gLL
.	.	.	24b-JJ
.	.	8EE-J 8E-	24r
.	.	.	24gLL
.	.	.	24b-JJ
*-	*-	*-	*-
!!!COM: Mozart
!!!OTL: Zwolf Variationen in Eb uber das franzosische Lied 'La belle Francoise'
!!!Variation: Variation 8b
**function	**harm	**kern	**kern
*	*	*clefF4	*clefG2
*	*	*k[b-e-a-]	*k[b-e-a-]
*M6/8	*M6/8	*M6/8	*M6/8
*E-:	*E-:	*E-:	*E-:
4.D	4.Vb	8DD 8D	24r
.	.	.	24fLL
.	.	.	24b-JJ
*	*	*clefG2	*
.	.	8ffL	24r
.	.	.	24dLL
.	.	.	24b-JJ
.	.	8b-J	24r
.	.	.	24dLL
.	.	.	24fJJ
=101	=101	=101	=101
4.D	4.Ic	8gg	24r
.	.	.	24dLL
.	.	.	24e-JJ
*	*	*clefF4	*
.	.	8GGL 8G	24r
.	.	.	24cLL
.	.	.	24e-JJ
.	.	8BBB-J 8BB-	24r
.	.	.	24dLL
.	.	.	24gJJ
4.D	4.V7/V	8AAA 8AA	24r
.	.	.	24cLL
.	.	.	24gJJ
*	*	*clefG2	*
.	.	8cccL	24r
.	.	.	24fLL
.	.	.	24aJJ
.	.	8ffJ	24r
.	.	.	24e-LL
.	.	.	24aJJ
=102	=102	=102	=102
4.D	4.V	8ddd	24r
.	.	.	24dLL
.	.	.	24b-JJ
*	*	*clefF4	*
.	.	8BB-L 8B-	24r
.	.	.	24dLL
.	.	.	24b-JJ
.	.	8EE-J 8E-	24r
.	.	.	24gLL
.	.	.	24b-JJ
4.D	4.Vb	8DD 8D	24r
.	.	.	24fLL
.	.	.	24b-JJ
*	*	*clefG2	*
.	.	8ffL	24r
.	.	.	24dLL
.	.	.	24b-JJ
.	.	8b-J	24r
.	.	.	24dLL
.	.	.	24fJJ
=103	=103	=103	=103
4.D	4.Ic	8gg	24r
.	.	.	24dLL
.	.	.	24e-JJ
*	*	*clefF4	*
.	.	8GGL 8G	24r
.	.	.	24cLL
.	.	.	24e-JJ
.	.	8BBB-J 8BB-	24r
.	.	.	24dLL
.	.	.	24gJJ
4.D	4.V7/V	8AAA 8AA	24r
.	.	.	24cLL
.	.	.	24gJJ
*	*	*clefG2	*
.	.	8eee-L	24r
.	.	.	24fLL
.	.	.	24aJJ
.	.	8aaJ	24r
.	.	.	24e-LL
.	.	.	24ccJJ
=104	=104	=104	=104
4.D	4.V	8bb-	24r
.	.	.	24dLL
.	.	.	24b-JJ
*	*	*clefF4	*
.	.	8CCL 8C	24r
.	.	.	24e-LL
.	.	.	24aJJ
.	.	8DDJ 8D	24r
.	.	.	24fLL
.	.	.	24a-JJ
*-	*-	*-	*-
!!!COM: Mozart
!!!OTL: Zwolf Variationen in Eb uber das franzosische Lied 'La belle Francoise'
!!!Variation: Variation 8c
**function	**harm	**kern	**kern
*	*	*clefF4	*clefG2
*	*	*k[b-e-a-]	*k[b-e-a-]
*M6/8	*M6/8	*M6/8	*M6/8
*E-:	*E-:	*E-:	*E-:
!	!exact repeat of 8a	!	!
4.T	4.I	8EE- 8E-	24r
.	.	.	24gLL
.	.	.	24b-JJ
.	.	(8ggL	24r
.	.	.	24e-LL
.	.	.	24b-JJ
.	.	8bb-J)	24r
.	.	.	24gLL
.	.	.	24b-JJ
=105	=105	=105	=105
2.T	2.V7	(8ggL	24r
.	.	.	24eLL
.	.	.	24b-JJ
.	.	8aa-	24r
.	.	.	24fLL
.	.	.	24b-JJ
.	.	8ggJ	24r
.	.	.	24e-LL
.	.	.	24b-JJ
.	.	8ffL	24r
.	.	.	24dLL
.	.	.	24b-JJ
.	.	8gg	24r
.	.	.	24e-LL
.	.	.	24b-JJ
.	.	8aa-J)	24r
.	.	.	24fLL
.	.	.	24b-JJ
=106	=106	=106	=106
2.T	2.I	(8ff#L	24r
.	.	.	24dLL
.	.	.	24b-JJ
.	.	8ggJ)	24r
.	.	.	24e-LL
.	.	.	24b-JJ
*	*	*clefF4	*
.	.	8BB- 8B-	24r
.	.	.	24gLL
.	.	.	24b-JJ
.	.	8EE- 8E-	24r
.	.	.	24gLL
.	.	.	24b-JJ
*	*	*clefG2	*
.	.	(8ggL	24r
.	.	.	24e-LL
.	.	.	24b-JJ
.	.	8bb-J)	24r
.	.	.	24gLL
.	.	.	24b-JJ
=107	=107	=107	=107
2.D	2.V7	(8ggL	24r
.	.	.	24eLL
.	.	.	24b-JJ
.	.	8aa-	24r
.	.	.	24fLL
.	.	.	24b-JJ
.	.	8ggJ	24r
.	.	.	24e-LL
.	.	.	24b-JJ
.	.	8ffL	24r
.	.	.	24dLL
.	.	.	24b-JJ
.	.	8aa-	24r
.	.	.	24fLL
.	.	.	24b-JJ
.	.	8ddJ	24r
.	.	.	24a-LL
.	.	.	24b-JJ
=108	=108	=108	=108
4.T	4.I	8ee-)	24r
.	.	.	24gLL
.	.	.	24b-JJ
*	*	*clefF4	*
.	.	8BB-L 8B-	24r
.	.	.	24gLL
.	.	.	24b-JJ
.	.	8EE-J 8E-	24r
.	.	.	24gLL
.	.	.	24b-JJ
*-	*-	*-	*-
!!!COM: Mozart
!!!OTL: Zwolf Variationen in Eb uber das franzosische Lied 'La belle Francoise'
!!!Variation: Variation 9a
**function	**harm	**kern	**kern
*	*	*clefF4	*clefG2
*	*	*k[b-e-a-d-g-c-]	*k[b-e-a-d-g-c-]
*M6/8	*M6/8	*M6/8	*M6/8
*e-:	*e-:	*e-:	*e-:
4.T	4.i	4.r	(8g-'L 8b-'
.	.	.	8g-' 8b-'
.	.	.	8g-'J) 8b-'
=109	=109	=109	=109
*	*	*^	*
.	.	.	.	(q32f
.	.	.	.	q32a-
4.T	4.viioD7	4.c-	2.D 2.F 2.A-	8.cc-L)
.	.	.	.	16b-k
.	.	.	.	8a-J
4.T	4.V7b	4.B-	.	8f'L
.	.	.	.	8g-'
.	.	.	.	8a-'J
=110	=110	=110	=110	=110
4.T	4.i	8r	8g-L	4.r
.	.	8EE-L 8E-	8b-J	.
.	.	8DD-J 8D-	8r	.
4.T	4.VI	4CC- 4C-	8e-L	4G-
.	.	.	8e-	.
.	.	8BBB- 8BB-	[8g-J	8B-
=111	=111	=111	=111	=111
4.P	4.iiob	4.AAA- 4.AA-	8g-L]	4c-
.	.	.	8f	.
.	.	.	[8cc-J	[8a-
4.D	4.V7	4.BBB- 4.BB-	8cc-L]	8a-L]
.	.	.	8b-	8g-
.	.	.	8dJ	8A-J
=112	=112	=112	=112	=112
4.T	4.i	8E-L	8e-	8G-
*	*	*v	*v	*
.	.	8BB-	8r
.	.	8EE-J	8r
*-	*-	*-	*-
!!!COM: Mozart
!!!OTL: Zwolf Variationen in Eb uber das franzosische Lied 'La belle Francoise'
!!!Variation: Variation 9b
**function	**harm	**kern	**kern
*	*	*clefF4	*clefG2
*	*	*k[b-e-a-d-g-c-]	*k[b-e-a-d-g-c-]
*M6/8	*M6/8	*M6/8	*M6/8
*e-:	*e-:	*e-:	*e-
4.D	4.viio	4.r	(8d'L 8f'
.	.	.	8d' 8f'
.	.	.	8d'J) 8f'
=113	=113	=113	=113
2.D	2.viioD7/V	8r	8fL 8a-
.	.	8AAAL 8AA	8e-J 8g-
.	.	8AAAJ 8AA	8r
.	.	4AAA 4AA	8e-L 8cc
.	.	.	8e- 8g-
.	.	8r	8e-J 8g-
=114	=114	=114	=114
2.D	2.V	8r	8e-L 8g-
.	.	8BBB-L 8BB-	8dJ 8f
.	.	8BBB-J 8BB-	8r
.	.	4BBB- 4BB-	(8b-'L 8dd'
.	.	.	8b-' 8dd'
.	.	8r	8b-'J) 8dd'
=115	=115	=115	=115
2.D	2.viioD7b/V	8r	[8a 8ffL
.	.	8CC-L 8C-	8a] 8ee-J
.	.	8CC-J 8C-	8r
.	.	4CC- 4C-	8aL 8gg-
.	.	.	8e- 8a
.	.	8r	8e-J 8a
=116	=116	=116	=116
4.D	4.V	4.BBB- 4.BB-	(4e- 4a
.	.	.	8d) 8b-
*-	*-	*-	*-
!!!COM: Mozart
!!!OTL: Zwolf Variationen in Eb uber das franzosische Lied 'La belle Francoise'
!!!Variation: Variation 9c
**function	**harm	**kern	**kern
*	*	*clefF4	*clefG2
*	*	*k[b-e-a-d-g-c-]	*k[b-e-a-d-g-c-]
*M6/8	*M6/8	*M6/8	*M6/8
*e-:	*e-:	*e-:	*e-
!	!exact repeat of 9a	!	!
*	*	*	*
4.T	4.i	4.r	(8g-'L 8b-'
.	.	.	8g-' 8b-'
.	.	.	8g-'J) 8b-'
=117	=117	=117	=117
*	*	*^	*
.	.	.	.	(q32f
.	.	.	.	q32a-
4.T	4.viioD7	4.c-	2.D 2.F 2.A-	8.cc-L)
.	.	.	.	16b-k
.	.	.	.	8a-J
4.T	4.V7b	4.B-	.	8f'L
.	.	.	.	8g-'
.	.	.	.	8a-'J
=118	=118	=118	=118	=118
4.T	4.i	8r	8g-L	4.r
.	.	8EE-L 8E-	8b-J	.
.	.	8DD-J 8D-	8r	.
4.T	4.VI	4CC- 4C-	8e-L	4G-
.	.	.	8e-	.
.	.	8BBB- 8BB-	[8g-J	8B-
=119	=119	=119	=119	=119
4.P	4.iiob	4.AAA- 4.AA-	8g-L]	4c-
.	.	.	8f-	.
.	.	.	[8cc-J	[8a-
4.D	4.V7	4.BBB- 4.BB-	8cc-L]	8a-L]
.	.	.	8b-	8g-
.	.	.	8dJ	8A-J
=120	=120	=120	=120	=120
4.T	4.i	8E-L	8e-	8G-
.	.	8BB-	8r	8r
.	.	8EE-J	8r	8r
*	*	*v	*v	*
*-	*-	*-	*-
!!!COM: Mozart
!!!OTL: Zwolf Variationen in Eb uber das franzosische Lied 'La belle Francoise'
!!!Variation: Variation 10a
**function	**harm	**kern	**kern
*	*	*clefG2	*clefG2
*	*	*k[b-e-a-]	*k[b-e-a-]
*M6/8	*M6/8	*M6/8	*M6/8
*E-:	*E-:	*E-:	*E-:
4.T	4.I	(32e-LLL	4bb-
.	.	32b-	.
.	.	32g	.
.	.	32b-JJ	.
.	.	32gLL	.
.	.	32b-	.
.	.	32g	.
.	.	32b-JJ	.
.	.	32gLL	(32aa-LLL
.	.	32b-	32gg
.	.	32g	32ff
.	.	32b-JJJ)	32ee-JJJ)
=121	=121	=121	=121
4.T	4.V7c	(32fLLL	(16ddLL
.	.	32b-	.
.	.	32a-	16ffJ)
.	.	32b-JJ	.
.	.	32a-LL	8aa-'J
.	.	32b-	.
.	.	32a-	.
.	.	32b-JJ	.
.	.	32a-LL	8r
.	.	32b-	.
.	.	32a-	.
.	.	32b-JJJ)	.
4.T	4.V7	32B-LLL	(16ggLL
.	.	32b-	.
.	.	32d	16ff)
.	.	32b-JJ	.
.	.	32B-LL	(16aa-
.	.	32b-	.
.	.	32e-	16gg)
.	.	32b-JJ	.
.	.	32B-LL	(16bb-
.	.	32b-	.
.	.	32f	16aa-JJ)
.	.	32b-JJJ	.
=122	=122	=122	=122
2.T	2.I	(32e-LLL	(8ff#L
.	.	32b-	.
.	.	32g	.
.	.	32b-JJ	.
.	.	32gLL	8ggJ)
.	.	32b-	.
.	.	32g	.
.	.	32b-JJ	.
.	.	32gLL	8r
.	.	32b-	.
.	.	32g	.
.	.	32b-JJJ)	.
*	*	*clefF4	*
.	.	(32E-LLL	8.bb-L
.	.	32B-	.
.	.	32G	.
.	.	32B-JJ	.
.	.	32GLL	.
.	.	32B-	.
.	.	32G	(32cccLL
.	.	32B-JJ	32bb-JJ
.	.	32GLL	32aa-LL
.	.	32B-	32gg
.	.	32G	32ff
.	.	32B-JJJ)	32ee-JJJ)
=123	=123	=123	=123
4.D	4.V7c	(32FLLL	16dd'LL
.	.	32B-	.
.	.	32A-	16ff'J
.	.	32B-JJ	.
.	.	32A-LL	8aa-'J
.	.	32B-	.
.	.	32A-	.
.	.	32B-JJ	.
.	.	32A-LL	16r
.	.	32B-	.
.	.	32A-	(32ffLLL
.	.	32B-JJJ)	32ggJJJ
4.D	4.V7	8BB-	32aa-LLL
.	.	.	32bb-
.	.	.	32aa-
.	.	.	32ggJJ
.	.	8r	32ffLL
.	.	.	32ee-
.	.	.	32dd
.	.	.	32ccJJ
.	.	8BB- 8D 8A-	32b-LL
.	.	.	32a-
.	.	.	32g
.	.	.	32fJJJ)
=124	=124	=124	=124
4.T	4.I	8E-L 8G	8e-
.	.	8BB-	8r
.	.	8E-J	8r
*-	*-	*-	*-
!!!COM: Mozart
!!!OTL: Zwolf Variationen in Eb uber das franzosische Lied 'La belle Francoise'
!!!Variation: Variation 10b
**function	**harm	**kern	**kern
*	*	*clefF4	*clefG2
*	*	*k[b-e-a-]	*k[b-e-a-]
*M6/8	*M6/8	*M6/8	*M6/8
*E-:	*E-:	*E-:	*E-:
4.D	4.V	4.BB- 4.D	32r
.	.	.	32fLLL
.	.	.	32e-
.	.	.	32fJJ
.	.	.	32dLL
.	.	.	32e-
.	.	.	32c
.	.	.	32dJJ
.	.	.	32B-LL
.	.	.	32c
.	.	.	32A-
.	.	.	32B-JJJ
=125	=125	=125	=125
4.D	4.Ic	4.BB- 4.E-	32GLLL
.	.	.	32g
.	.	.	32f
.	.	.	32gJJ
.	.	.	32e-LL
.	.	.	32f
.	.	.	32d
.	.	.	32e-JJ
.	.	.	32cLL
.	.	.	32d
.	.	.	32B-
.	.	.	32cJJJ
4.D	4.V7/V	4.BB- 4.C	32ALLL
.	.	.	32cc
.	.	.	32b-
.	.	.	32ccJJ
.	.	.	32aLL
.	.	.	32b-
.	.	.	32g
.	.	.	32aJJ
.	.	.	32fLL
.	.	.	32g
.	.	.	32e-
.	.	.	32fJJJ
=126	=126	=126	=126
4.D	4.V	8BB- 8D	32dLLL
.	.	.	32f
.	.	.	32e-
.	.	.	32dJJ
.	.	8r	32e-LL
.	.	.	32f
.	.	.	32g
.	.	.	32aJJ
.	.	8r	32b-LL
.	.	.	32cc
.	.	.	32dd
.	.	.	32ee-JJJ
4.D	4.V7	4.BB- 4.D 4.A-	32ffLLL
.	.	.	32ff
.	.	.	32ee-
.	.	.	32ffJJ
.	.	.	32ddLL
.	.	.	32ee-
.	.	.	32cc
.	.	.	32ddJJ
.	.	.	32b-LL
.	.	.	32cc
.	.	.	32a-
.	.	.	32b-JJJ
=127	=127	=127	=127
4.D	4.Ic	4.BB- 4.E- 4.G	32gLLL
.	.	.	32gg
.	.	.	32ff
.	.	.	32ggJJ
.	.	.	32ee-LL
.	.	.	32ff
.	.	.	32dd
.	.	.	32ee-JJ
.	.	.	32ccLL
.	.	.	32dd
.	.	.	32b-
.	.	.	32ccJJJ
4.D	4.V7/V	(4.BB- 4.C 4.E- 4.F 4.A	32aLLL
.	.	.	32eee-
.	.	.	32ddd
.	.	.	32eee-JJ
.	.	.	32cccLL
.	.	.	32ddd
.	.	.	32bb-
.	.	.	32cccJJ
.	.	.	32aaLL
.	.	.	32bb-
.	.	.	32ccc
.	.	.	32aaJJJ
=128	=128	=128	=128
4.D	4.V	8BB-) 8D 8F 8B-	32bb-LLL
.	.	.	32aan
.	.	.	32bb-
.	.	.	32aaJJ
.	.	8r	32bb-LL
.	.	.	32aan
.	.	.	32bb-
.	.	.	32aaJJ
.	.	8r	32bb-LL
.	.	.	32aan
.	.	.	32bb-
.	.	.	32aaJJJ
*-	*-	*-	*-
!!!COM: Mozart
!!!OTL: Zwolf Variationen in Eb uber das franzosische Lied 'La belle Francoise'
!!!Variation: Variation 10c
**function	**harm	**kern	**kern
*	*	*clefG2	*clefG2
*	*	*k[b-e-a-]	*k[b-e-a-]
*M6/8	*M6/8	*M6/8	*M6/8
*E-:	*E-:	*E-:	*E-:
!	!exact repeat of 10a	!	!
4.T	4.I	(32e-LLL	4bb-
.	.	32b-	.
.	.	32g	.
.	.	32b-JJ	.
.	.	32gLL	.
.	.	32b-	.
.	.	32g	.
.	.	32b-JJ	.
.	.	32gLL	(32aa-LLL
.	.	32b-	32gg
.	.	32g	32ff
.	.	32b-JJJ)	32ee-JJJ)
=129	=129	=129	=129
4.T	4.V7c	(32fLLL	(16ddLL
.	.	32b-	.
.	.	32a-	16ffJ)
.	.	32b-JJ	.
.	.	32a-LL	8aa-'J
.	.	32b-	.
.	.	32a-	.
.	.	32b-JJ	.
.	.	32a-LL	8r
.	.	32b-	.
.	.	32a-	.
.	.	32b-JJJ)	.
4.T	4.V7	32B-LLL	(16ggLL
.	.	32b-	.
.	.	32d	16ff)
.	.	32b-JJ	.
.	.	32B-LL	(16aa-
.	.	32b-	.
.	.	32e-	16gg)
.	.	32b-JJ	.
.	.	32B-LL	(16bb-
.	.	32b-	.
.	.	32f	16aa-JJ)
.	.	32b-JJJ	.
=130	=130	=130	=130
2.T	2.I	(32e-LLL	(8ff#L
.	.	32b-	.
.	.	32g	.
.	.	32b-JJ	.
.	.	32gLL	8ggJ)
.	.	32b-	.
.	.	32g	.
.	.	32b-JJ	.
.	.	32gLL	8r
.	.	32b-	.
.	.	32g	.
.	.	32b-JJJ)	.
*	*	*clefF4	*
.	.	(32E-LLL	8.bb-L
.	.	32B-	.
.	.	32G	.
.	.	32B-JJ	.
.	.	32GLL	.
.	.	32B-	.
.	.	32G	(32cccLL
.	.	32B-JJ	32bb-JJ
.	.	32GLL	32aa-LL
.	.	32B-	32gg
.	.	32G	32ff
.	.	32B-JJJ)	32ee-JJJ)
=131	=131	=131	=131
4.D	4.V7c	(32FLLL	16dd'LL
.	.	32B-	.
.	.	32A-	16ff'J
.	.	32B-JJ	.
.	.	32A-LL	8aa-'J
.	.	32B-	.
.	.	32A-	.
.	.	32B-JJ	.
.	.	32A-LL	16r
.	.	32B-	.
.	.	32A-	(32ffLLL
.	.	32B-JJJ)	32ggJJJ
4.D	4.V7	8BB-	32aa-LLL
.	.	.	32bb-
.	.	.	32aa-
.	.	.	32ggJJ
.	.	8r	32ffLL
.	.	.	32ee-
.	.	.	32dd
.	.	.	32ccJJ
.	.	8BB- 8D 8A-	32b-LL
.	.	.	32a-
.	.	.	32g
.	.	.	32fJJJ)
=132	=132	=132	=132
4.T	4.I	8E-L 8G	8e-
.	.	8BB-	8r
.	.	8E-J	8r
*-	*-	*-	*-
!!!COM: Mozart
!!!OTL: Zwolf Variationen in Eb uber das franzosische Lied 'La belle Francoise'
!!!Variation: Variation 11a
**function	**harm	**kern	**kern
*	*	*clefF4	*clefG2
*	*	*k[b-e-a-]	*k[b-e-a-]
*M6/8	*M6/8	*M6/8	*M6/8
*E-:	*E-:	*E-:	*E-:
.	.	.	(q32g
4.T	4.I	(8E-L	8.b-L)
.	.	8G	.
.	.	.	(32ccLL
.	.	.	32b-J
.	.	8B-J)	16a-)
.	.	.	16g'JJ
=133	=133	=133	=133
2.T	2.V7b	(8DL	(16.b-LL
.	.	.	32a-Jk)
.	.	8F	8a-
.	.	8B-J)	8a-J
.	.	(8DL	(16.fLL
.	.	.	32gJk)
.	.	8F	24a-'L
.	.	.	24g'
.	.	.	24f'J
.	.	8B-J)	24cc'L
.	.	.	24b-'
.	.	.	24a-'JJ
=134	=134	=134	=134
4.T	4.I	(8E-L	(16.f#LL
.	.	.	32gJJk)
.	.	8G	(8.gL
.	.	8B-J)	.
.	.	.	16a-Jk
4.T	4.Ib	(8GGL	8.b-L)
.	.	8BB-	.
.	.	.	(q32dd
.	.	.	(16ccL)
.	.	.	(q32ee-
.	.	8E-J)	16dd)
.	.	.	(q32ff
.	.	.	16ee-JJ)
=135	=135	=135	=135
4.P	4.ii7b	(8AA-L	(16.ee-LL
.	.	.	32f)
.	.	8C	16f
.	.	.	(16f
.	.	8FJ)	16a-
.	.	.	16ccJJ)
*	*	*^	*
.	.	.	.	(q32aL
.	.	.	.	q32ccJ
4D	4Cc	8GL	4BB-	8.b-L)
.	.	8E-	.	.
.	.	.	.	16gL
8D	8V7	8DJ	8BB-	16a-
.	.	.	.	16A-JJ 16f
*	*	*v	*v	*
=136	=136	=136	=136
4.T	4.I	8E-L	(8A-L 8f
.	.	8BB-	8GJ) 8e-
.	.	8EE-J	8r
*-	*-	*-	*-
!!!COM: Mozart
!!!OTL: Zwolf Variationen in Eb uber das franzosische Lied 'La belle Francoise'
!!!Variation: Variation 11b
**function	**harm	**kern	**kern
*	*	*clefF4	*clefG2
*	*	*k[b-e-a-]	*k[b-e-a-]
*M6/8	*M6/8	*M6/8	*M6/8
*E-:	*E-:	*E-:	*E-:
4.D	4.V	8BBB-L	8.fL
.	.	8DL 8BB-	.
.	.	.	(16fL
.	.	8DJ 8BB-J	16g
.	.	.	16a-JJ)
=137	=137	=137	=137
4.D	4.Ic	8BBB-L	(16f#LK
.	.	.	8g)
.	.	8E-L 8BB-	.
.	.	.	(16gL
.	.	8E-J 8BB-J	16a)
.	.	.	16b-'JJ
4.D	4.viio/V	8BBB-L	(32b-LLL
.	.	.	32g#JJ)
.	.	.	8anJ
.	.	8E-L 8A 8BB-	.
.	.	.	(64aLLLK
.	.	.	32.ccJJJ)
.	.	8E-J 8A 8BB-J	(64b-LLLK
.	.	.	32.dd)
.	.	.	(64cck
.	.	.	32.ee-JJJ)
=138	=138	=138	=138
.	.	.	(q32dd
4.D	4.V	8D 8F 8B- 8BB-	(8.ffL)
.	.	8r	.
.	.	.	48ggLL
.	.	.	48ff
.	.	.	48ee-JJ
.	.	8r	32ddLL)
.	.	.	32cc'
.	.	.	32dd'
.	.	.	32ee-'JJJ
*	*	*clefG2	*
.	.	.	(q32ee
4.D	4.V7	8r	8.ffL)
.	.	8dL 8a- 8B-L	.
.	.	.	(32ee-LL
.	.	.	32ddJJ
.	.	8dJ 8a- 8B-J	32ccLL
.	.	.	32b-
.	.	.	32ff
.	.	.	32aa-JJJ)
=139	=139	=139	=139
.	.	.	(q32ff#L
.	.	.	q32aa-J
4.D	4.Ic	8r	8.ggL)
.	.	8e-L 8g 8B-L	.
.	.	.	16ggL
.	.	.	(q32ff
.	.	8e-J 8g 8B-J	16ee-)
.	.	.	(q32dd
.	.	.	16ccJJ)
*	*	*clefF4	*
.	.	.	(q32b-
4.D	4.V7/V	8r	[8aL)
.	.	8B- 8cL 8e-	32aLL]
.	.	.	32cc'
.	.	.	32ee-'
.	.	.	32ff'JJ
.	.	8B- 8cJ 8e-	32aa'LL
.	.	.	32ccc'
.	.	.	32eee-'
.	.	.	32aa'JJJ
=140	=140	=140	=140
4.D	4.V	8cL 8e- 4B-	16aaLL
.	.	.	32cccL
.	.	.	32bb-JJJ
.	.	8dJ 8B-	8bb-;
*-	*- 	*-	*-
!!!COM: Mozart
!!!OTL: Zwolf Variationen in Eb uber das franzosische Lied 'La belle Francoise'
!!!Variation: Variation 11c
**function	**harm	**kern	**kern
*	*	*clefF4	*clefG2
*	*	*k[b-e-a-]	*k[b-e-a-]
*M6/8	*M6/8	*M6/8	*M6/8
*E-:	*E-:	*E-:	*E-:
!	!exact repeat of 11a	!	!
.	.	.	(q32g
4.T	4.I	(8E-L	8.b-L)
.	.	8G	.
.	.	.	(32ccLL
.	.	.	32b-J
.	.	8B-J)	16a-)
.	.	.	16g'JJ
=141	=141	=141	=141
2.T	2.V7b	(8DL	(16.b-LL
.	.	.	32a-Jk)
.	.	8F	8a-
.	.	8B-J)	8a-J
.	.	(8DL	(16.fLL
.	.	.	32gJk)
.	.	8F	24a-'L
.	.	.	24g'
.	.	.	24f'J
.	.	8B-J)	24cc'L
.	.	.	24b-'
.	.	.	24a-'JJ
=142	=142	=142	=142
4.T	4.I	(8E-L	(16.f#LL
.	.	.	32gJJk)
.	.	8G	(8.gL
.	.	8B-J)	.
.	.	.	16a-Jk
4.T	4.Ib	(8GGL	8.b-L)
.	.	8BB-	.
.	.	.	(q32dd
.	.	.	(16ccL)
.	.	.	(q32ee-
.	.	8E-J)	16dd)
.	.	.	(q32ff
.	.	.	16ee-JJ)
=143	=143	=143	=143
4.P	4.ii7b	(8AA-L	(16.ee-LL
.	.	.	32fk)
.	.	8C	16f
.	.	.	(16f
.	.	8FJ)	16a-
.	.	.	16ccJJ)
*	*	*^	*
.	.	.	.	(q32aL
.	.	.	.	q32ccJ
4D	4Cc	8GL	4BB-	8.b-L)
.	.	8E-	.	.
.	.	.	.	16gL
8D	8V7	8DJ	8BB-	16a-
.	.	.	.	16A-JJ 16f
*	*	*v	*v	*
=144	=144	=144	=144
4.T	4.I	8E-L	(8A-L 8f
.	.	8BB-	8GJ) 8e-
.	.	8EE-J	8r
*-	*-	*-	*-
!!!COM: Mozart
!!!OTL: Zwolf Variationen in Eb uber das franzosische Lied 'La belle Francoise'
!!!Variation: Variation 12a
**function	**harm	**kern	**kern
*	*	*clefF4	*clefG2
*	*	*k[b-e-a-]	*k[b-e-a-]
*M2/4	*M2/4	*M2/4	*M2/4
*E-:	*E-:	*E-:	*E-:
2T	2I	2E- 2G 2B-	8.b-L 8.g
.	.	.	(32ccLL
.	.	.	32b-JJJ
.	.	.	8a-L)
.	.	.	8g'J
=146	=146	=146	=146
2T	2V7b	2D 2F 2B-	8fL 8a-
.	.	.	8fJ 8a-
.	.	.	8fL 8a-
.	.	.	16ffL
.	.	.	16ggJJ
=147	=147	=147	=147
2T	2V7	8BB-L 8D	16aa-LL
.	.	.	16gg
.	.	8BB-J 8D	16ff
.	.	.	16ee-JJ
.	.	8BB-L 8D	16ddLL
.	.	.	16cc
.	.	8BB-J 8D	16b-
.	.	.	16a-JJ
=148	=148	=148	=148
2T	2I	8E-L 8G	8gL
.	.	8FJ 8A-	8a-J
.	.	8G 8B-	8b-
.	.	8r	8r
=149	=149	=149	=149
2T	2I	2E- 2G	8.b-L 8.g
.	.	.	(32ccLL
.	.	.	32b-JJJ
.	.	.	8a-L)
.	.	.	8g'J
=150	=150	=150	=150
2P	2ii7b	2AA- 2E- 2F	8ccL
.	.	.	8ccJ
.	.	.	8ccL
.	.	.	16ee-L
.	.	.	16ddJJ
=151	=151	=151	=151
2D	2V7	4r	16ccLL
.	.	.	16b-
.	.	.	16a-
.	.	.	16gJJ
.	.	4BB- 4D 4A-	8fL
.	.	.	8b-J
=152	=152	=152	=152
2T	2I	8E-L 8G	4e-
.	.	8BB-J	.
.	.	4EE-	4r
*-	*-	*-	*-
!!!COM: Mozart
!!!OTL: Zwolf Variationen in Eb uber das franzosische Lied 'La belle Francoise'
!!!Variation: Variation 12b
**function	**harm	**kern	**kern
*	*	*clefF4	*clefG2
*	*	*k[b-e-a-]	*k[b-e-a-]
*M2/4	*M2/4	*M2/4	*M2/4
*E-:	*E-:	*E-:	*E-:
=153	=153	=153	=153
2T	2Vb	4r	16fLL
.	.	.	16d
.	.	.	16c
.	.	.	16B-JJ
.	.	4DD 4FF 4BB-	16ALL
.	.	.	16B-
.	.	.	16A
.	.	.	16B-JJ
=154	=154	=154	=154
2T	2vib	4r	16gLL
.	.	.	16e-
.	.	.	16d
.	.	.	16cJJ
.	.	4EE- 4GG 4C	16BLL
.	.	.	16c
.	.	.	16B
.	.	.	16cJJ
=155	=155	=155	=155
2T	2V7d/V	4r	16ccLL
.	.	.	16a
.	.	.	16g
.	.	.	16fJJ
.	.	4E- 4A 4c	16eLL
.	.	.	16f
.	.	.	16e
.	.	.	16fJJ
=156	=156	=156	=156
8T	8Ib	8DL 8B-	16b-LL
.	.	.	16f
8T	8V7d/V	8E-J	16a 16cc
.	.	.	16fJJ
8T	8Ib	8DL	16b-LL 16dd
.	.	.	16f
8T	8V7c/V	8CJ	16cc 16ee-
.	.	.	16fJJ
=157	=157	=157	=157
2T	2Vb	4r	16ffLL
.	.	.	16dd
.	.	.	16cc
.	.	.	16b-JJ
.	.	4D 4F 4B-	16aLL
.	.	.	16b-
.	.	.	16a
.	.	.	16b-JJ
=158	=158	=158	=158
2T	2vib	4r	16ggLL
.	.	.	16ee-
.	.	.	16dd
.	.	.	16ccJJ
.	.	4E- 4G 4c	16bLL
.	.	.	16cc
.	.	.	16b
.	.	.	16ccJJ
=159	=159	=159	=159
2T	2V7/V	4r	16eee-LL
.	.	.	16ddd
.	.	.	16ccc
.	.	.	16bb-JJ
.	.	4F 4c 4e-	16aaLL
.	.	.	16bb-
.	.	.	16ccc
.	.	.	16aaJJ
=160	=160	=160	=160
8D	8V	8dL 8B-L	16bb-LL
.	.	.	16ddd
8D	8V7/V	8e-J 8FJ	16ccc
.	.	.	16aaJJ
8D	8V	8dL 8B-L	16bb-LL
.	.	.	16ddd
8D	8V7/V	8e-J 8FJ	16ccc
.	.	.	16aaJJ
=161	=161	=161	=161
8D	8V	8dL 8B-L	16bb-LL
.	.	.	16ddd
8D	8V7/V	8e-J 8FJ	16ccc
.	.	.	16aaJJ
8D	8V	8dL 8B-L	16bb-LL
.	.	.	16ddd
8D	8V7/V	8e-J 8FJ	16ccc
.	.	.	16aaJJ
=162	=162	=162	=162
*	*	*^	*
2D	2V	4d	2B-	8bb-L
.	.	.	.	8bbJ
.	.	8e-L	.	8cccL
.	.	8eJ	.	8ggJ
=163	=163	=163	=163	=163
2D	2V7	(8fL	2B-	16aa-LL
.	.	.	.	16bb-
.	.	8eJ	.	16gg
.	.	.	.	16bb-JJ
.	.	8fL	.	16aa-LL
.	.	.	.	16bb-
.	.	8eJ	.	16gg
.	.	.	.	16bb-JJ
=164	=164	=164	=164	=164
2D	2V7	8fL	2B-	16aa-LL
.	.	.	.	16bb-
.	.	8eJ	.	16gg
.	.	.	.	16bb-JJ
.	.	8fL	.	16aa-LL
.	.	.	.	16bb-
.	.	8eJ	.	16gg
.	.	.	.	16bb-JJ
=165	=165	=165	=165	=165
2D	2V7	2f;)	2B-;	2aa-;
*	*	*v	*v	*
*-	*-	*-	*-
!!!COM: Mozart
!!!OTL: Zwolf Variationen in Eb uber das franzosische Lied 'La belle Francoise'
!!!Variation: Variation 12c
**function	**harm	**kern	**kern
*	*	*clefF4	*clefG2
*	*	*k[b-e-a-]	*k[b-e-a-]
*M2/4	*M2/4	*M2/4	*M2/4
*E-:	*E-:	*E-:	*E-:
!	!exact repeat of 12a	!	!
=166	=166	=166	=166
2T	2I	2E- 2G 2B-	8.b-L 8.g
.	.	.	(32ccLL
.	.	.	32b-JJJ
.	.	.	8a-L)
.	.	.	8g'J
=167	=167	=167	=167
2T	2V7b	2D 2F 2B-	8fL 8a-
.	.	.	8fJ 8a-
.	.	.	8fL 8a-
.	.	.	16ffL
.	.	.	16ggJJ
=168	=168	=168	=168
2T	2V7	8BB-L 8D	16aa-LL
.	.	.	16gg
.	.	8BB-J 8D	16ff
.	.	.	16ee-JJ
.	.	8BB-L 8D	16ddLL
.	.	.	16cc
.	.	8BB-J 8D	16b-
.	.	.	16a-JJ
=169	=169	=169	=169
2T	2I	8E-L 8G	8gL
.	.	8FJ 8A-	8a-J
.	.	8G 8B-	8b-
.	.	8r	8r
=170	=170	=170	=170
2T	2I	2E- 2G	8.b-L 8.g
.	.	.	(32ccLL
.	.	.	32b-JJJ
.	.	.	8a-L)
.	.	.	8g'J
=171	=171	=171	=171
2P	2ii7b	2AA- 2E- 2F	8ccL
.	.	.	8ccJ
.	.	.	8ccL
.	.	.	16ee-L
.	.	.	16ddJJ
=172	=172	=172	=172
2D	2V7	4r	16ccLL
.	.	.	16b-
.	.	.	16a-
.	.	.	16gJJ
.	.	4BB- 4D 4A-	8fL
.	.	.	8b-J
=173	=173	=173	=173
2T	2I	8E-L 8G	4e-
.	.	8BB-J	.
.	.	4EE-	4r
==	==	==	==
*-	*-	*-	*-
!!!COM: Mozart
!!!OTL: Zwolf Variationen in Eb uber das franzosische Lied 'La belle Francoise'
!!!Variation: Variation 12 a2 (coda)
**function	**harm	**kern	**kern
*	*	*clefF4	*clefG2
*	*	*k[b-e-a-]	*k[b-e-a-]
*M6/8	*M6/8	*M6/8	*M6/8
*E-:	*E-:	*E-:	*E-:
!	!repeat of Theme a	!	!
4.T	4.I	(8E-L	(4g 4b-
.	.	8G	.
.	.	8B-J)	8e-) 8g
=174	=174	=174	=174
4.T	4.V7b	(8DL	4.f 4.a-
.	.	8F	.
.	.	8B-J)	.
4.T	4.V7	(8BB-L	8dL 8f
.	.	8F	8e- 8g
.	.	8B-J)	8fJ 8a-
=175	=175	=175	=175
2.T	2.I	(8E-L	4e- 4g
.	.	8G	.
.	.	8B-J)	8e- 8g
.	.	(8E-L	(4g 4b-
.	.	8G	.
.	.	8B-J)	8e-) 8g
=176	=176	=176	=176
4.P	4.iib	(8AA-L	4.f 4.a-
.	.	8C	.
.	.	8FJ)	.
4.D	4.V7	(8BB-L	8A-L 8f
.	.	8D	8B- 8g
.	.	8FJ)	8A-J 8f
=177	=177	=177	=177
4.T	4.I	(8EE-L	4.G 4.e-
.	.	8BB-	.
.	.	8E-J)	.
*-	*-	*-	*-
!!!COM: Mozart
!!!OTL: Zwolf Variationen in Eb uber das franzosische Lied 'La belle Francoise'
!!!Variation: Variation 12 b2 (coda)
**function	**harm	**kern	**kern
*	*	*clefF4	*clefG2
*	*	*k[b-e-a-]	*k[b-e-a-]
*M6/8	*M6/8	*M6/8	*M6/8
*E-:	*E-:	*E-:	*E-:
4.T	4.V7/IV	(8EE-L	4B- 4g
.	.	8D-	.
.	.	8E-J)	8B- 8g
=178	=178	=178	=178
4.T	4.IVc	(8EE-L	4.c 4.a-
.	.	8C	.
.	.	8E-J)	.
4.T	4.V7	(8EE-L	8A-L 8f
.	.	8BB-	8B- 8g
.	.	8DJ)	8A-J 8f
=179	=179	=179	=179
4.T	4.I	(8EE-L	4.G 4.e-
.	.	8BB-	.
.	.	8E-J)	.
4.T	4.V7/IV	(8EE-L	4B- 4g
.	.	8D-	.
.	.	8E-J)	8B- 8g
=180	=180	=180	=180
4.T	4.IVc	(8EE-L	4.c 4.a-
.	.	8C	.
.	.	8E-J)	.
4.T	4.V7	(8EE-L	8A-L 8f
.	.	8BB-	8B- 8g
.	.	8DJ)	8A-J 8f
=181	=181	=181	=181
4.T	4.I	8EE-L	4.G 4.e-
.	.	8BB-	.
.	.	8E-J	.
*	*	*^	*
.	.	.	.	(q32e-
4.T	4.V7	4.F 4.A- 4.B-	4.BBB-	8dL)
.	.	.	.	8c
.	.	.	.	8dJ
=182	=182	=182	=182	=182
4.T	4.I	4.G 4.B-	8EE-L	4.e-
.	.	.	8BB-	.
.	.	.	8E-J	.
.	.	.	.	(q32e-
4.D	4.V7	4.F 4.A- 4.B-	4.BBB-	8dL)
.	.	.	.	8c
.	.	.	.	8dJ
=183	=183	=183	=183	=183
4.T	4.I	8G 8B-	8EE-	8e-
*	*	*v	*v	*
.	.	8r	8r
.	.	8r	8r
==	==	==	==
*-	*-	*-	*-
